X: 18589
T: I Rowed Up In A Dory
R: reel
M: 4/4
K: Dmajor
"D"de|fddc BAFG|ABAF A2de|fddc BABd|"A"efed e2de|
"D"fddc BAFG|ABAF A2de|f2a2 ge"A"ce|"D"d2d2 d2:|
|:"D"fg|afaf afde|fdfd f2de|f2fe faaf|feef "A"e2de|
"D"fddc BAFG|ABAF A2de|"F"f2a2 gec"A"e|"D"d2d2 d2:|

